assets/svg/logo.svg

<svg fill="none" height="70" viewBox="0 0 70 70" width="70" xmlns="http://www.w3.org/2000/svg"><path d="m61.0312 70h-51.95308c-5.03124 0-9.07812-4.0469-9.07812-8.9688v-51.95308c0-5.03124 4.04688-9.07812 9.07812-9.07812h51.95308c4.9219 0 8.9688 4.04688 8.9688 9.07812v51.95308c0 4.9219-4.0469 8.9688-8.9688 8.9688z" fill="#fff"/><g fill="#327feb"><path d="m47.2654 26.641c.8375-.9423 1.2563-2.0939 1.2563-3.3502 0-2.722-2.1986-5.0252-5.0253-5.0252h-20.6244c-1.1516 0-2.0938.4187-2.8267 1.1516-.7328.7328-1.1516 1.6751-1.1516 2.8267 0 2.1985 1.7798 3.9783 3.9783 3.9783h3.6643c3.4548 0 5.2346 4.083 2.9314 6.7003l-9.9458 11.2021c-.8376.9422-1.2563 2.0939-1.2563 3.3502 0 2.722 2.1985 5.0252 5.0252 5.0252h19.1587c-.8375-1.0469-1.361-2.5126-1.361-3.9783s.5235-2.9314 1.361-3.9783h-2.0938c-3.4549 0-5.3393-4.083-3.0361-6.7003z"/><path d="m48.5217 52.5c2.1971 0 3.9783-1.7811 3.9783-3.9783s-1.7812-3.9783-3.9783-3.9783c-2.1972 0-3.9783 1.7811-3.9783 3.9783s1.7811 3.9783 3.9783 3.9783z"/></g></svg>

<svg width="70" height="70" viewBox="0 0 70 70" fill="none" xmlns="http://www.w3.org/2000/svg">
<path d="M61.0312 70H9.07812C4.04688 70 0 65.9531 0 61.0312V9.07812C0 4.04688 4.04688 0 9.07812 0H61.0312C65.9531 0 70 4.04688 70 9.07812V61.0312C70 65.9531 65.9531 70 61.0312 70Z" fill="white"/>
<path d="M47.2654 26.641C48.1029 25.6987 48.5217 24.5471 48.5217 23.2908C48.5217 20.5688 46.3231 18.2656 43.4964 18.2656H22.872C21.7204 18.2656 20.7782 18.6843 20.0453 19.4172C19.3125 20.15 18.8937 21.0923 18.8937 22.2439C18.8937 24.4424 20.6735 26.2222 22.872 26.2222H26.5363C29.9911 26.2222 31.7709 30.3052 29.4677 32.9225L19.5219 44.1246C18.6843 45.0668 18.2656 46.2185 18.2656 47.4748C18.2656 50.1968 20.4641 52.5 23.2908 52.5H42.4495C41.612 51.4531 41.0885 49.9874 41.0885 48.5217C41.0885 47.056 41.612 45.5903 42.4495 44.5434H40.3557C36.9008 44.5434 35.0164 40.4604 37.3196 37.8431L47.2654 26.641Z" fill="#327FEB"/>
<path d="M48.5217 52.5C50.7188 52.5 52.5 50.7189 52.5 48.5217C52.5 46.3245 50.7188 44.5434 48.5217 44.5434C46.3245 44.5434 44.5434 46.3245 44.5434 48.5217C44.5434 50.7189 46.3245 52.5 48.5217 52.5Z" fill="#327FEB"/>
</svg>
